X:197
T:Petticoat Loose
M:6/8
L:1/8
B:Thompson's Compleat Collection of 200 Favourite Country Dances, vol. 1 (London, 1757)
Z:Transcribed and edited by Flynn Titford-Mock, 2007
Z:abc's:AK/Fiddler's Companion
K:Gmin
A|B2G AFD|B2G AFD|(F3 F2)A|B2G AFD|B2G AFD|(G3 G2)B|(G3 G2):|
|:Bcd cBA|BAG AFD|fgf fcA|fgf fcA|Bcd cBA|BAG AGF|Gag gdB|gag g2A|
Bcd cBA|BAG AFD|fgf fcA|fgf fcA|Bcd cde|dcB AG^F|(G3 G2)B|(G3 G2):|

